utils/icon设计资源/icons/door-closed-fill.svg

<?xml version="1.0" encoding="UTF-8" standalone="no"?>
<svg
   xmlns:dc="http://purl.org/dc/elements/1.1/"
   xmlns:cc="http://creativecommons.org/ns#"
   xmlns:rdf="http://www.w3.org/1999/02/22-rdf-syntax-ns#"
   xmlns:svg="http://www.w3.org/2000/svg"
   xmlns="http://www.w3.org/2000/svg"
   xmlns:sodipodi="http://sodipodi.sourceforge.net/DTD/sodipodi-0.dtd"
   xmlns:inkscape="http://www.inkscape.org/namespaces/inkscape"
   inkscape:version="1.0 (4035a4fb49, 2020-05-01)"
   sodipodi:docname="door-closed-fill.svg"
   id="svg2562"
   version="1.1"
   fill="currentColor"
   class="bi bi-door-closed-fill"
   viewBox="0 0 16 16"
   height="1em"
   width="1em">
  <metadata
     id="metadata2568">
    <rdf:RDF>
      <cc:Work
         rdf:about="">
        <dc:format>image/svg+xml</dc:format>
        <dc:type
           rdf:resource="http://purl.org/dc/dcmitype/StillImage" />
      </cc:Work>
    </rdf:RDF>
  </metadata>
  <defs
     id="defs2566" />
  <sodipodi:namedview
     inkscape:current-layer="svg2562"
     inkscape:window-maximized="1"
     inkscape:window-y="-9"
     inkscape:window-x="-9"
     inkscape:cy="8"
     inkscape:cx="8"
     inkscape:zoom="51.875"
     showgrid="false"
     id="namedview2564"
     inkscape:window-height="1001"
     inkscape:window-width="1920"
     inkscape:pageshadow="2"
     inkscape:pageopacity="0"
     guidetolerance="10"
     gridtolerance="10"
     objecttolerance="10"
     borderopacity="1"
     bordercolor="#666666"
     pagecolor="#ffffff" />
  <path
     d="M 4 1 A 1 1 0 0 0 3 2 L 3 15 L 1.5 15 A 0.5 0.5 0 0 0 1.5 16 L 14.5 16 A 0.5 0.5 0 0 0 14.5 15 L 13 15 L 13 2 A 1 1 0 0 0 12 1 L 4 1 z M 6 8 A 1 1 0 0 1 6 10 A 1 1 0 0 1 6 8 z "
     style="fill:#000000;fill-opacity:1;fill-rule:evenodd"
     id="path2560" />
</svg>

<svg width="1em" height="1em" viewBox="0 0 16 16" class="bi bi-door-closed-fill" fill="currentColor" xmlns="http://www.w3.org/2000/svg">
  <path fill-rule="evenodd" d="M4 1a1 1 0 0 0-1 1v13H1.5a.5.5 0 0 0 0 1h13a.5.5 0 0 0 0-1H13V2a1 1 0 0 0-1-1H4zm2 9a1 1 0 1 0 0-2 1 1 0 0 0 0 2z"/>
</svg>
